X:1
T:Una Barriera
T:Una Barriera
T:Giovanni Croce Chiozzotto
T:Source : Canzonette a 3 voci---Libro primo---Venetia---G.Vincenti---1601. Editor : André Vierendeels (18/11/14).
C:Giovanni Croce Chiozzotto
%%score [ 1 2 3 ]
L:1/8
Q:1/4=96
M:4/4
K:F
V:1 treble nm="Canto 1" snm="C 1"
V:2 treble nm="Canto 2" snm="C 2"
V:3 treble-8 nm="Tenor" snm="T"
V:1
 c2 cc c4 | c4 F2 A2 | c2 A2 FF A2 | c2 A2 FF A2- | A2 G2 AB cB/A/ | G2 F2 G4 |[M:2/4] A4 :: %7
w: U- na Bar- rie-|ra- e tor-|nea- men- to, e tor-|nea- men- to, e tor-|* nea- men- * * * *|* to veg-|gio,|
w: Di fiam- m'e poi,-|di fiam- m'e|poi di la- gri- m'e,|di la- gr- m'e, so-|* spi- * * * * *||ri,|
w: Di- nan- zi'a gl'oc-|chi, di- nan-|zi'a gl'oc- chi, di- nan-|zi a gl'oc- chi miei-|* poi spes- * * * *|* so scor-|go,|
w: A que- sto si,|a que- sto|si, a que- sto si,|co- nos- ce chi- a-|* ra men- * * * *||te,|
[M:4/4] A2 Bc d2 c2 | B4 A4 | d4 c2 G2 | B4 A2 AA | G2 GE F2 F2 | z2 cc B2 BB | AFAA G2 A2 | %14
w: di Ca- va- lier' ar-|ma- ti,|a tut- te|l'ho- re, che com-|bat- tton- la sbat- ta,|che com- ba- tton la|sbat- ta del mio co- re,|
w: e di sa- et- te|ten- gon|den- tro- al|pet- to, un tor-|ne- o'a- mo- ro- so,|un tor- ne- o'a- mo-|ro- so'a- mio dis- pet- to,|
w: nel cor- so di mia|vi- *|ta, cor- rer|for- te, con om-|bre, e lar- * ve,|con om- bre, e lar-|ve spa- ven- to- sa mor-|
w: che vi- ven- do tra|tan- ti,|e tan- ti|gua- i, tra tan-|ti'e tan- ti gua- i,|in- fe- li- ce io|mi re- sti sem- pre- ma-|
 F2 B2 A4 |1 G4 A4 :|2[M:2/4] G4 ||[M:4/4] A8 |] %18
w: del mio co-|* re,|(co)-|re.|
w: a mio dis-|pet- to,-|pet-|to.|
w: te, mor- *|* te,|(mor)-|te.|
w: i, sem- pre-|ma- i,|ma-|i.|
V:2
 z4 A2 AA | A4 A2 F2 | A2 c2 A2 FF | A2 c2 A2 FF | E2 E2 F2 ED | E2 F2 E4 |[M:2/4] F4 :: %7
w: U- na Bar-|rie- ra e|tor- nea- men- to, e|tor- nea- men- to, e|tor- nea- men- * *|* to veg-|gio,|
w: Di fiam- m'e|poi, di fiam-|m'e poi di la- gri-|m'e, di la- gri- m'e|so- spi- * * *||ri,|
w: Di- nan- zi'a|gl'oc- chi, di-|nan- zi'a gl'oc- chi, di-|nan- zi'a gl'oc- chi miei|poi spes- * * *|* so scor-|go,|
w: A que- sto|si, a- que-|sto si, a que- sto|si, co- gnos- ce chi-|a- ra- men- * *||te,|
[M:4/4] z4 D2 EF | G2 G2 F4- | F2 F2 F2 D2 | D2 E2 F2 FF | E2 EC D2 D2 | F2 F2 G2 D2 | %13
w: di Ca- va-|lier' ar- ma-|* ti, a tut-|te l'ho- re, che com-|bat- ton la sbat- ta,|del mio co- re,|
w: e di sa-|et- te ten-|* gon den- tro|al pet- to, un tor-|ne- o'a- mo- ro- so,|a- mo- ro- so,|
w: nel cor- so|di mia vi-|* ta, cor- rer|for- * te, con om-|bre, e lar- ve, con|om- br'e lar- ve,|
w: che vi- ven-|do tra tan-|* ti, e tan-|ti gua- i, tra tan-|ti'e tan- ti gua- i,|in- fe- li- ce|
 z2 FF E2 FF | DD G2 E2 F2- |1 F2 E2 F4 :|2[M:2/4] F2 E2 ||[M:4/4] F8 |] %18
w: che com- bat- ton la|sbat- ta del mio co-|* * re,|(co)- *|re.|
w: un tor- ne- o'a- mo-|ro- so'a mio dis- pet-|* * to|(pet)- *|to.|
w: spa- ven- to- sa,- spa-|ven- to- sa mor- *|* * te,-|(mor)- *|te.|
w: io mi re- sti sem-|pre- ma- i, sem- pre|_ ma- i|(ma)- *|i.|
V:3
 z4 F2 FF | F4 F4 | F2 FF F4 | F6 F2 | A2 c2 FG AB | c2 d2 c4 |[M:2/4] F4 ::[M:4/4] F2 GA B2 A2 | %8
w: U- na Bar-|rie- ra|u- na Ba- rie-|ra, e|tot- nea- men- * * *|* to veg-|gio,|di Ca- va- lier' ar-|
w: Di fiam- ma-|e poi|di fiam- ma- e|poi di|la- gri- me- * * *|* so- spi-|ri,|e di sa- et- te|
w: Di- nan- zi'a|gl'oc- chi,|di- nan- zi'a gl'oc-|chi miei|poi spes- * * * *|* so scor-|go,|nel cor- so di mia|
w: A que- sto|si, a|que- sto si, co-|gnos- ce|chia- ra men- * * *||te,|che vi- ven- do tre|
 GA Bc d4 | B4 A2 B2 | G4 F4 | z2 cc B2 BB | AFAA G4 | F2 F2 c2 A2 | B2 G2 A3 B |1 c4 F4 :|2 %16
w: ma- * * * *|ti'a tut- te|l'ho- re,|che com- bat- ton la|sbat- ta del mio co-|re, la sbat- ta|del mio co- *|* re,|
w: ten- * * * *|gon den- tro'al|pet- to,|un tor- ne- o'a- mo-|ro- so, in tor- ne-|o'a- mo- ro- so'a|mio dis- pet- *|* to,|
w: vi- * * * *|ta, cor- rer|for- te,|con om- bre, con om-|bre, con om- br'e lar-|ve spa- ven- to-|sa mor- * *|* te,|
w: tan- * * * *|ti'e tan- ti|gua- i,|tra tan- ti'e tan- ti,|in- fe- li- ce io|mi re- sti sem-|pre ma- * *|* i,|
[M:2/4] c4 ||[M:4/4] F8 |] %18
w: (co)-|re.|
w: (pet)-|to.|
w: (mor)-|te.|
w: (ma)-|i.|

